X:1
T:Sealed With a Kiss
T:Sealed With a Kiss
T:Peter Udell and Gary Geld
T:©
C:Peter Udell and Gary Geld
Z:All Rights Reserved
L:1/8
Q:1/4=100
M:4/4
K:Dmin
V:1 treble nm="MusicXML Part"
%%MIDI program 0
%%MIDI control 7 102
%%MIDI control 10 64
V:1
"^Slow" D"^N.C."DFFAA ||"G" G4-"Gm" G2 FE |"Dm" F2 D2- D4 |"Bb" (3B2 B2 G2"C7" (3c2 c2 G2 | %4
w: 'Though we got- ta' say good-|bye _ for the|sum- mer- _|dar- ling, I pro- mise you|
"F" A3 A"D7" dcBA |"Gm" B4-"C7" B2 cB |"F" A2 AG"Dm" AF D2- |"Gm" D4"A7" G2 FE | %8
w: this, I'll send you all my|love- _ ev- ery|day in a let- * ter|_ sealed with a|
"Dm" D2"^N.C." DD FFAA |"G" G4-"Gm" G2 FE |"Dm" F2 D2- D3 D |"Bb" (3B2 B2 G2"C7" c3 G | %12
w: kiss. Yes, it's gon- na' be a|cold _ lon- ley|sum- mer, _ but|I'll fill the emp- ti-|
"F" A3 A"D7" dcBA |"Gm" B4-"C7" B2 cB |"F" A2 AG"Dm" AF D2- |"Gm" D4"A7" G2 FE |"Dm" D4- D2 D2 | %17
w: ness. I'll send you all my|dreams- _ ev- ery|day in a let- * ter|_ sealed with a|kiss. _ I'll|
"G" =B2 B2- B2 AG |"Dm" A2 A2- A2 D2 |"G" =B2 B2 B2 AG |"Dm" A4- A2 D2 |"G" =B3 B (3B2 A2 G2 | %22
w: see you _ in the|sun- light, _ I'll|hear your voice ev- ery-|where, _ I'll|run to ten- der- ly|
"Dm" A2 A2- A2 A2 |"E7" ^G2 G2 (3G2 ^F2 G2 |"A7" A2"^N.C." dd dAGF |"G" G4-"Gm" G2 FE | %26
w: hold you, _ but|dar- ling, you won't be|there. I don't want to say good-|bye _ for the|
"Dm" F2 D2- D4 |"Bb" (3B2 B2 G2"C7" c3 G |"F" A3 A"D7" dcBA |"Gm" B3 G"C7" c2 cB |"Dm" A2 d2- d4 | %31
w: sum- mer, _|kno- wing the love we'll|miss. Oh, let us make a|pledge to meet in sep-|tem- ber _|
"Gm" z2 z D"C" EFEC |"Dm" D8 |"Gm" z2 z D"C" EFEC |"D" D8 |] %35
w: and seal it with a|kiss,|and seal it with a|kiss.|

